X:13
T:The Bellman's Song
M:4/4
L:1/8
K:G
 B,2| E2 F2 G2 FG|A-G FE ^D2 B,2| E2 F2 G2 A2| B6|G-A| B2c-B A2B-A|\
 G2A-G F2G-A| B2 EEG-FE-D| E6||

